packages/components/icons/assets/Couch.svg

<svg viewBox="0 0 24 24" xmlns="http://www.w3.org/2000/svg" data-title="Couch" fill="currentColor" stroke="none">
  <path fill-rule="evenodd" clip-rule="evenodd" d="M23.1607 6.74023C22.6311 6.21839 21.9117 5.92301 21.1524 5.92301H19.8235V3.79627C19.8235 2.25045 18.5545 1 16.9858 1H7.00416C5.43547 1 4.16653 2.25045 4.16653 3.79627V5.92301H2.83764C2.08826 5.92301 1.36886 6.21839 0.829309 6.74023C0.29975 7.26207 0 7.97099 0 8.71928V16.1038C0 16.8423 0.29975 17.5512 0.829309 18.0829C1.35887 18.6047 2.07827 18.9001 2.83764 18.9001H5.57535L5.02581 21.6176C4.89592 22.2379 5.30558 22.8483 5.94505 22.9763C6.57452 23.1043 7.19401 22.7006 7.3239 22.0705L7.96336 18.9001H16.0366L16.6761 22.0705C16.806 22.6908 17.4155 23.1043 18.055 22.9763C18.6844 22.8483 19.1041 22.2477 18.9742 21.6176L18.4246 18.9001H21.1624C21.9117 18.9001 22.6311 18.6047 23.1707 18.0829C23.7102 17.561 24 16.8521 24 16.1038V8.71928C24 7.98083 23.7002 7.27192 23.1707 6.74023H23.1607ZM6.51457 3.79627C6.51457 3.53043 6.73439 3.30397 7.01416 3.30397H17.0058C17.2756 3.30397 17.5054 3.52058 17.5054 3.79627V7.075V11.998C17.5054 12.2639 17.2856 12.4903 17.0058 12.4903H7.00416C6.73439 12.4903 6.50458 12.2737 6.50458 11.998V3.79627H6.51457ZM21.652 16.1038C21.652 16.2318 21.602 16.3598 21.5021 16.4484C21.4022 16.537 21.2823 16.5961 21.1524 16.5961H2.84763C2.71774 16.5961 2.58784 16.5469 2.49792 16.4484C2.40799 16.3598 2.34804 16.2318 2.34804 16.1038V8.71928C2.34804 8.59129 2.398 8.46329 2.49792 8.37467C2.58784 8.28606 2.71774 8.22698 2.84763 8.22698H4.17652V11.998C4.17652 13.5438 5.44546 14.7943 7.01416 14.7943H17.0058C18.5745 14.7943 19.8435 13.5438 19.8435 11.998V8.22698H21.1724C21.3022 8.22698 21.4321 8.27621 21.5221 8.37467C21.612 8.47313 21.6719 8.59129 21.6719 8.71928V16.1038H21.652Z"/>
</svg>

<svg viewBox="0 0 24 24" xmlns="http://www.w3.org/2000/svg" data-title="Couch" fill="currentColor" stroke="none">
  <path fill-rule="evenodd" d="m23.16,6.74c-.53-.52-1.25-.82-2.01-.82h-1.33v-2.13c0-1.55-1.27-2.8-2.84-2.8H7c-1.57,0-2.84,1.25-2.84,2.8v2.13h-1.33c-.75,0-1.47.3-2.01.82-.53.52-.83,1.23-.83,1.98v7.38c0,.74.3,1.45.83,1.98.53.52,1.25.82,2.01.82h2.74l-.55,2.72c-.13.62.28,1.23.92,1.36.63.13,1.25-.28,1.38-.91l.64-3.17h8.07l.64,3.17c.13.62.74,1.03,1.38.91.63-.13,1.05-.73.92-1.36l-.55-2.72h2.74c.75,0,1.47-.3,2.01-.82.54-.52.83-1.23.83-1.98v-7.38c0-.74-.3-1.45-.83-1.98h-.01ZM6.51,3.8c0-.27.22-.49.5-.49h9.99c.27,0,.5.22.5.49v8.2c0,.27-.22.49-.5.49H7c-.27,0-.5-.22-.5-.49V3.8h0Zm15.14,12.31c0,.13-.05.26-.15.34s-.22.15-.35.15H2.85c-.13,0-.26-.05-.35-.15-.09-.09-.15-.22-.15-.34v-7.38c0-.13.05-.26.15-.34.09-.09.22-.15.35-.15h1.33v3.77c0,1.55,1.27,2.8,2.84,2.8h9.99c1.57,0,2.84-1.25,2.84-2.8v-3.77h1.33c.13,0,.26.05.35.15.09.1.15.22.15.34v7.38h-.02Z"/>
</svg>
